X:1
T:Pazzi amant
T:Pazzi amanti
T:Pier Francesco Cavalli
T:Source : Arie a voce sola de diversi attori---Venetia---A.Vincenti---1656. Editor : André Vierendeels (07/04/16).
T:Notes : Original clefs : C1, F4 Editorial accidentals above the staff Music collected by Francesco Tonalli
T:©
T:©
T:©
C:Pier Francesco Cavalli
Z:©
%%score 1 2
L:1/8
Q:1/4=90
M:4/4
K:C
V:1 treble nm="Soprano" snm="S"
V:2 bass nm="BC" snm="BC"
V:1
 z2 Bc dedc | dc de/d/ c<B c d/c/ | B2 GA BAB^c | dde^f gfed | ^cBAd Bddc | ^f3 g/f/ e3 f/e/ | %6
w: Paz- zi'a- man- ti di voi|ti- * * * * * * * do _|_ quan- do sen- to dir ch'ar-|de- te, e ch'al fo- co di Cu-|pi- do l'al- ma'l cor vi di- strug-|ge- * * * * *|
w: L'in- fiam- mar- si'à lo splen-|do- * * * * * * * re _|_ di due lu- mi'e dol- ce|sor- te le fe- ri- te che f'A-|mo- re dan la vi- ta'e non ma|mo- * * * * *|
 d3 e/d/ ^c2 Ad | e^f e2 d4 ::[M:3/4] z2 A2 A2 | B2 c2 d2 | d2 c4 | c2 B4 | B2 A4 | A2 ^G4 | %14
w: * * * * te, vi|di- strug- ge- te.|Che v'ac-|ci- da'il do-|lor _|_ _|||
w: * * * * te, e|non la mor- te.|||||||
 e2 A2 B2 | c2 B4 | A6 | c2 B3 A | G4 B2 | E4 A2 | ^D6 | B2 B2 B2 | c2 ^F2 GA | G2 ^F2 G2 | E6 | %25
w: io non vi|cre- *|do,|di- te mo-|rir, mo-|rir, mo-|rir,|ne mai spi-|rar vi- * *|ve- * *|do,|
w: |||||||||||
 e2 d3 c | B4 d2 | G4 c2 | ^F6 | d2 d2 d2 | e2 A2 Bc | B2 A2 B2 | G6 :| %33
w: di- te mo-|rir mo-|rir, mo-|rir|ne mai spi-|rar vi- * *|ve- * *|do.|
w: ||||||||
V:2
 z2 G,A, B,CB,A, | B,A,B,G, A,G,A,^F, | G,D,E,^F, G,F,G,E, | D,C,B,,A,, B,,G,,A,,B,, | %4
 A,,G,^F,D, G,F,G,A, | DCB,G, CB,A,^F, | B,A,G,E, A,G,^F,D, | G,G,, A,,2 D,,4 ::[M:3/4] D,4 C,2 | %9
 B,,4 E,2 | A,,4 A,2 | G,6 | F,6 | E,6 | C,2 F,2 D,2 | E,6 | A,,6 | A,2 B,4 | C4 G,2 | A,4 C2 | %20
 B,6 | G,4 G,2 | A,4 A,2 | B,6 | E,6 | E,2 ^F,4 | G,4 D,2 | E,4 C,2 | D,6 | B,,4 B,,2 | C,4 C,2 | %31
 D,6 | G,,6 :| %33

